front/public/static/landing/logos/gray/photoroom.svg

<svg fill="none" height="300" viewBox="0 0 600 300" width="600" xmlns="http://www.w3.org/2000/svg"><g fill="#364153"><path clip-rule="evenodd" d="m32 133.424c0-9.121 0-13.681 1.4901-17.279 1.9868-4.796 5.7977-8.607 10.5943-10.594 3.5974-1.49 8.158-1.49 17.279-1.49h39.1516c9.121 0 13.681 0 17.279 1.49 4.796 1.987 8.607 5.798 10.594 10.594 1.49 3.598 1.49 8.158 1.49 17.279v39.152c0 9.121 0 13.681-1.49 17.279-1.987 4.796-5.798 8.607-10.594 10.594-3.598 1.49-8.158 1.49-17.279 1.49h-39.1516c-9.121 0-13.6816 0-17.279-1.49-4.7966-1.987-8.6075-5.798-10.5943-10.594-1.4901-3.598-1.4901-8.158-1.4901-17.279zm28.6783 4.943c-3.7299 0-6.7536-3.024-6.7536-6.754 0-3.729 3.0237-6.753 6.7536-6.753h30.3912c10.5675 0 19.1355 8.567 19.1355 19.135s-8.568 19.135-19.1355 19.135h-23.6376v11.256c0 3.729-3.0238 6.753-6.7536 6.753-3.7299 0-6.7536-3.024-6.7536-6.753v-18.01c0-3.73 3.0237-6.753 6.7536-6.753h30.3912c3.1082 0 5.6279-2.52 5.6279-5.628s-2.5197-5.628-5.6279-5.628zm30.3912 30.391h-2.798l10.404 10.404c1.2222 1.222 2.9105 1.978 4.7755 1.978 3.73 0 6.754-3.024 6.754-6.754 0-1.865-.756-3.553-1.978-4.775l-4.393-4.392c-3.727 2.246-8.095 3.539-12.7645 3.539z" fill-rule="evenodd"/><path clip-rule="evenodd" d="m156.68 180.965h12.415v-17.944h11.587c12 0 20.276-8.157 20.276-19.576s-8.276-19.575-20.276-19.575h-24.002zm12.415-28.955v-17.129h10.345c5.793 0 9.104 3.263 9.104 8.564 0 5.302-3.311 8.565-9.104 8.565z" fill-rule="evenodd"/><path d="m217.294 180.965h-11.677v-57.095h11.677v18.352h.418c2.918-3.263 6.254-5.302 11.258-5.302 9.592 0 16.265 6.525 16.265 17.537v26.508h-11.677v-24.877c0-5.71-2.919-8.972-7.924-8.972-5.004 0-8.34 3.67-8.34 8.972z"/><path d="m316.48 180.965h7.99v-10.626h-5.993c-2.398 0-3.996-1.635-3.996-4.087v-17.983h9.989v-10.626h-9.989v-11.443h-9.588l-1.598 11.443h-6.791v10.626h6.791v20.027c0 8.174 4.395 12.669 13.185 12.669z"/><g clip-rule="evenodd" fill-rule="evenodd"><path d="m329.129 159.409c0 14.459 8.291 22.721 21.556 22.721s21.557-8.262 21.557-22.721c0-14.46-8.292-22.722-21.557-22.722s-21.556 8.262-21.556 22.722zm31.505 0c0 8.675-4.559 12.393-9.949 12.393-5.388 0-9.949-3.718-9.949-12.393 0-8.676 4.561-12.394 9.949-12.394 5.39 0 9.949 3.718 9.949 12.394z"/><path d="m429.337 182.13c-12.907 0-20.974-8.262-20.974-22.721 0-14.46 8.067-22.722 20.974-22.722s20.974 8.262 20.974 22.722c0 14.459-8.067 22.721-20.974 22.721zm0-10.328c5.243 0 9.68-3.718 9.68-12.393 0-8.676-4.437-12.394-9.68-12.394s-9.68 3.718-9.68 12.394c0 8.675 4.437 12.393 9.68 12.393z"/><path d="m477.116 182.13c-12.908 0-20.975-8.262-20.975-22.721 0-14.46 8.067-22.722 20.975-22.722 12.906 0 20.973 8.262 20.973 22.722 0 14.459-8.067 22.721-20.973 22.721zm0-10.328c5.243 0 9.68-3.718 9.68-12.393 0-8.676-4.437-12.394-9.68-12.394-5.245 0-9.682 3.718-9.682 12.394 0 8.675 4.437 12.393 9.682 12.393z"/></g><path d="m505.078 180.965h11.44v-25.419c0-5.739 3.269-8.609 6.946-8.609 4.086 0 7.355 2.459 7.355 8.609v25.419h11.44v-25.419c0-5.739 3.269-8.609 6.945-8.609 4.087 0 7.356 2.459 7.356 8.609v25.419h11.44v-27.059c0-10.659-6.537-17.219-15.935-17.219-5.557 0-11.032 2.952-13.075 6.97h-.408c-2.124-4.264-6.701-6.97-11.85-6.97-4.495 0-7.763 2.05-10.214 5.74h-.408l-1.226-4.92h-9.806z"/><path d="m389.441 180.965h-11.371v-43.113h9.747l1.216 4.881h.408c2.435-3.661 6.089-4.881 10.15-4.881h5.279v10.982h-4.467c-6.903 0-10.962 4.067-10.962 10.575z"/><path clip-rule="evenodd" d="m272.618 182.13c-13.265 0-21.556-8.262-21.556-22.721 0-14.46 8.291-22.722 21.556-22.722 13.266 0 21.558 8.262 21.558 22.722 0 14.459-8.292 22.721-21.558 22.721zm0-10.328c5.389 0 9.95-3.718 9.95-12.393 0-8.676-4.561-12.394-9.95-12.394-5.388 0-9.949 3.718-9.949 12.394 0 8.675 4.561 12.393 9.949 12.393z" fill-rule="evenodd"/></g></svg>

<svg width="600" height="300" viewBox="0 0 600 300" fill="none" xmlns="http://www.w3.org/2000/svg">
<path fill-rule="evenodd" clip-rule="evenodd" d="M32 133.424C32 124.303 32 119.743 33.4901 116.145C35.4769 111.349 39.2878 107.538 44.0844 105.551C47.6818 104.061 52.2424 104.061 61.3634 104.061H100.515C109.636 104.061 114.196 104.061 117.794 105.551C122.59 107.538 126.401 111.349 128.388 116.145C129.878 119.743 129.878 124.303 129.878 133.424V172.576C129.878 181.697 129.878 186.257 128.388 189.855C126.401 194.651 122.59 198.462 117.794 200.449C114.196 201.939 109.636 201.939 100.515 201.939H61.3634C52.2424 201.939 47.6818 201.939 44.0844 200.449C39.2878 198.462 35.4769 194.651 33.4901 189.855C32 186.257 32 181.697 32 172.576V133.424ZM60.6783 138.367C56.9484 138.367 53.9247 135.343 53.9247 131.613C53.9247 127.884 56.9484 124.86 60.6783 124.86H91.0695C101.637 124.86 110.205 133.427 110.205 143.995C110.205 154.563 101.637 163.13 91.0695 163.13H67.4319V174.386C67.4319 178.115 64.4081 181.139 60.6783 181.139C56.9484 181.139 53.9247 178.115 53.9247 174.386V156.376C53.9247 152.646 56.9484 149.623 60.6783 149.623H91.0695C94.1777 149.623 96.6974 147.103 96.6974 143.995C96.6974 140.887 94.1777 138.367 91.0695 138.367H60.6783ZM91.0695 168.758H88.2715L98.6755 179.162C99.8977 180.384 101.586 181.14 103.451 181.14C107.181 181.14 110.205 178.116 110.205 174.386C110.205 172.521 109.449 170.833 108.227 169.611L103.834 165.219C100.107 167.465 95.739 168.758 91.0695 168.758Z" fill="#364153"/>
<path fill-rule="evenodd" clip-rule="evenodd" d="M156.68 180.965H169.095V163.021H180.682C192.682 163.021 200.958 154.864 200.958 143.445C200.958 132.026 192.682 123.87 180.682 123.87H156.68V180.965ZM169.095 152.01V134.881H179.44C185.233 134.881 188.544 138.144 188.544 143.445C188.544 148.747 185.233 152.01 179.44 152.01H169.095Z" fill="#364153"/>
<path d="M217.294 180.965H205.617V123.87H217.294V142.222H217.712C220.63 138.959 223.966 136.92 228.97 136.92C238.562 136.92 245.235 143.445 245.235 154.457V180.965H233.558V156.088C233.558 150.378 230.639 147.116 225.634 147.116C220.63 147.116 217.294 150.786 217.294 156.088V180.965Z" fill="#364153"/>
<path d="M316.48 180.965H324.47V170.339H318.477C316.079 170.339 314.481 168.704 314.481 166.252V148.269H324.47V137.643H314.481V126.2H304.893L303.295 137.643H296.504V148.269H303.295V168.296C303.295 176.47 307.69 180.965 316.48 180.965Z" fill="#364153"/>
<path fill-rule="evenodd" clip-rule="evenodd" d="M329.129 159.409C329.129 173.868 337.42 182.13 350.685 182.13C363.95 182.13 372.242 173.868 372.242 159.409C372.242 144.949 363.95 136.687 350.685 136.687C337.42 136.687 329.129 144.949 329.129 159.409ZM360.634 159.409C360.634 168.084 356.075 171.802 350.685 171.802C345.297 171.802 340.736 168.084 340.736 159.409C340.736 150.733 345.297 147.015 350.685 147.015C356.075 147.015 360.634 150.733 360.634 159.409Z" fill="#364153"/>
<path fill-rule="evenodd" clip-rule="evenodd" d="M429.337 182.13C416.43 182.13 408.363 173.868 408.363 159.409C408.363 144.949 416.43 136.687 429.337 136.687C442.244 136.687 450.311 144.949 450.311 159.409C450.311 173.868 442.244 182.13 429.337 182.13ZM429.337 171.802C434.58 171.802 439.017 168.084 439.017 159.409C439.017 150.733 434.58 147.015 429.337 147.015C424.094 147.015 419.657 150.733 419.657 159.409C419.657 168.084 424.094 171.802 429.337 171.802Z" fill="#364153"/>
<path fill-rule="evenodd" clip-rule="evenodd" d="M477.116 182.13C464.208 182.13 456.141 173.868 456.141 159.409C456.141 144.949 464.208 136.687 477.116 136.687C490.022 136.687 498.089 144.949 498.089 159.409C498.089 173.868 490.022 182.13 477.116 182.13ZM477.116 171.802C482.359 171.802 486.796 168.084 486.796 159.409C486.796 150.733 482.359 147.015 477.116 147.015C471.871 147.015 467.434 150.733 467.434 159.409C467.434 168.084 471.871 171.802 477.116 171.802Z" fill="#364153"/>
<path d="M505.078 180.965H516.518V155.546C516.518 149.807 519.787 146.937 523.464 146.937C527.55 146.937 530.819 149.396 530.819 155.546V180.965H542.259V155.546C542.259 149.807 545.528 146.937 549.204 146.937C553.291 146.937 556.56 149.396 556.56 155.546V180.965H568V153.906C568 143.247 561.463 136.687 552.065 136.687C546.508 136.687 541.033 139.639 538.99 143.657H538.582C536.458 139.393 531.881 136.687 526.732 136.687C522.237 136.687 518.969 138.737 516.518 142.427H516.11L514.884 137.507H505.078V180.965Z" fill="#364153"/>
<path d="M389.441 180.965H378.07V137.852H387.817L389.033 142.733H389.441C391.876 139.072 395.53 137.852 399.591 137.852H404.87V148.834H400.403C393.5 148.834 389.441 152.901 389.441 159.409V180.965Z" fill="#364153"/>
<path fill-rule="evenodd" clip-rule="evenodd" d="M272.618 182.13C259.353 182.13 251.062 173.868 251.062 159.409C251.062 144.949 259.353 136.687 272.618 136.687C285.884 136.687 294.176 144.949 294.176 159.409C294.176 173.868 285.884 182.13 272.618 182.13ZM272.618 171.802C278.007 171.802 282.568 168.084 282.568 159.409C282.568 150.733 278.007 147.015 272.618 147.015C267.23 147.015 262.669 150.733 262.669 159.409C262.669 168.084 267.23 171.802 272.618 171.802Z" fill="#364153"/>
</svg>
